X: 9747
T:Darling Nellie Gray
R:2nd Change
Z:Chris Falt <cfalt@trytel.com>
M:2/4
L:1/8
K:G
GB|"G"d2d>e|"G7"dBAG|"C"cdef|g2fe|"G"d2d>d|edBG|"D7"A4-|AFGB|!
"G"d2d>e|"G7"dBAG|"C"cdef|g2fe|"G"d2B>c|"D7"dcAF|"G"G4-|GF:|!
|:FG|"D7"A2A>A|A2e>e|"G"eddB|d2Bc|dd^cd|edBG|"D7"A4-|AFGB|!
"G"d2d>e|"G7"dBAG|"C"cdef|g2fe|"G"d2B>c|"D7"dcAF|"G"G4-|G2:|]
